material/.icons/material/standard-definition.svg

<svg xmlns="http://www.w3.org/2000/svg" viewBox="0 0 24 24"><path d="M13 7h3a3 3 0 013 3v4a3 3 0 01-3 3h-3V7m3 8a1 1 0 001-1v-4a1 1 0 00-1-1h-1v6h1M7 7h4v2H7v2h2a2 2 0 012 2v2a2 2 0 01-2 2H5v-2h4v-2H7a2 2 0 01-2-2V9a2 2 0 012-2z"/></svg>

<?xml version="1.0" encoding="UTF-8"?><!DOCTYPE svg PUBLIC "-//W3C//DTD SVG 1.1//EN" "http://www.w3.org/Graphics/SVG/1.1/DTD/svg11.dtd"><svg xmlns="http://www.w3.org/2000/svg" xmlns:xlink="http://www.w3.org/1999/xlink" version="1.1" id="mdi-standard-definition" width="24" height="24" viewBox="0 0 24 24"><path d="M13,7H16A3,3 0 0,1 19,10V14A3,3 0 0,1 16,17H13V7M16,15A1,1 0 0,0 17,14V10A1,1 0 0,0 16,9H15V15H16M7,7H11V9H7V11H9A2,2 0 0,1 11,13V15A2,2 0 0,1 9,17H5V15H9V13H7A2,2 0 0,1 5,11V9A2,2 0 0,1 7,7Z" /></svg>
